assets/images/location.svg

<svg width="32" height="32" viewBox="0 0 32 32" fill="none" xmlns="http://www.w3.org/2000/svg">
<g clip-path="url(#clip0_26_3165)">
<path d="M22.5 12.5C24.1569 12.5 25.5 11.1569 25.5 9.5C25.5 7.84315 24.1569 6.5 22.5 6.5C20.8431 6.5 19.5 7.84315 19.5 9.5C19.5 11.1569 20.8431 12.5 22.5 12.5Z" fill="#A83229"/>
<path d="M20.5 31.5H3.5L12 23L20.5 31.5Z" fill="#4A9BF6"/>
<path d="M31.5 3.5V28.5C31.5 29.2956 31.1839 30.0587 30.6213 30.6213C30.0587 31.1839 29.2956 31.5 28.5 31.5H26.5L15 20L18.805 16.195C19.9565 17.6969 21.1901 19.1341 22.5 20.5C22.5 20.5 29.5 13.365 29.5 9.5C29.5006 8.38081 29.2313 7.27797 28.715 6.285L31.5 3.5Z" fill="#D3D9F2"/>
<path d="M31.5001 3.5L28.7151 6.285C28.052 4.99692 27.0032 3.94809 25.7151 3.285L28.5001 0.5C29.2957 0.5 30.0588 0.81607 30.6214 1.37868C31.184 1.94129 31.5001 2.70435 31.5001 3.5Z" fill="#FFDF64"/>
<path d="M26.5 31.5H20.5L12 23L15 20L26.5 31.5Z" fill="#F7F7FF"/>
<path d="M18.805 16.195L15 20L12 23L3.5 31.5C2.70435 31.5 1.94129 31.1839 1.37868 30.6213C0.81607 30.0587 0.5 29.2956 0.5 28.5L16.445 12.555C17.1261 13.8336 17.9157 15.0514 18.805 16.195Z" fill="#FFDF64"/>
<path d="M28.5 0.5L25.715 3.285C24.6483 2.73206 23.4573 2.46316 22.2565 2.50421C21.0558 2.54525 19.8858 2.89486 18.8594 3.51934C17.833 4.14383 16.9847 5.02214 16.3963 6.06964C15.8079 7.11715 15.4992 8.29855 15.5 9.5C15.5777 10.5771 15.901 11.6221 16.445 12.555L0.5 28.5V3.5C0.5 2.70435 0.81607 1.94129 1.37868 1.37868C1.94129 0.81607 2.70435 0.5 3.5 0.5H28.5Z" fill="#28BE77"/>
<path d="M28.715 6.28497C29.2313 7.27794 29.5006 8.38078 29.5 9.49997C29.5 13.365 22.5 20.5 22.5 20.5C21.1901 19.134 19.9565 17.6968 18.805 16.195C17.9157 15.0514 17.1261 13.8336 16.445 12.555C15.901 11.6221 15.5777 10.5771 15.5 9.49997C15.5013 7.93227 16.0288 6.41039 16.998 5.17818C17.9672 3.94598 19.322 3.07478 20.8453 2.70419C22.3685 2.33361 23.9721 2.48508 25.3991 3.13435C26.826 3.78361 27.9937 4.89308 28.715 6.28497ZM25.5 9.49997C25.5 8.90663 25.3241 8.32661 24.9944 7.83326C24.6648 7.33992 24.1962 6.9554 23.6481 6.72834C23.0999 6.50127 22.4967 6.44186 21.9147 6.55762C21.3328 6.67337 20.7982 6.9591 20.3787 7.37865C19.9591 7.79821 19.6734 8.33276 19.5576 8.9147C19.4419 9.49665 19.5013 10.0998 19.7284 10.648C19.9554 11.1962 20.3399 11.6647 20.8333 11.9944C21.3266 12.324 21.9067 12.5 22.5 12.5C23.2956 12.5 24.0587 12.1839 24.6213 11.6213C25.1839 11.0587 25.5 10.2956 25.5 9.49997Z" fill="#D73D3F"/>
<path d="M5.5 29.5L3.5 31.5H20.5L18.5 29.5H5.5Z" fill="#3B7CC4"/>
<path d="M28.5 29.5H24.5L26.5 31.5H28.5C29.2956 31.5 30.0587 31.1839 30.6213 30.6213C31.1839 30.0587 31.5 29.2956 31.5 28.5V26.5C31.5 27.2956 31.1839 28.0587 30.6213 28.6213C30.0587 29.1839 29.2956 29.5 28.5 29.5Z" fill="#AEB2D4"/>
<path d="M31.0586 3.9415C31.3472 4.41011 31.5 4.94965 31.5001 5.5V3.5L31.0586 3.9415Z" fill="#B8BCE0"/>
<path d="M28.5 2.5C29.0143 2.50046 29.5199 2.63331 29.968 2.88578C30.4161 3.13825 30.7916 3.50182 31.0585 3.9415L31.5 3.5C31.5 2.70435 31.1839 1.94129 30.6213 1.37868C30.0587 0.81607 29.2956 0.5 28.5 0.5L26.5 2.5H28.5Z" fill="#FFB844"/>
<path d="M18.5 29.5L20.5 31.5H26.5L24.5 29.5H18.5Z" fill="#CACFE8"/>
<path d="M3.5 29.5C2.98567 29.4995 2.48012 29.3667 2.03202 29.1142C1.58392 28.8617 1.20836 28.4982 0.9415 28.0585L0.5 28.5C0.5 29.2956 0.81607 30.0587 1.37868 30.6213C1.94129 31.1839 2.70435 31.5 3.5 31.5L5.5 29.5H3.5Z" fill="#FFB844"/>
<path d="M0.5 26.5V28.5L0.9415 28.0585C0.652894 27.5899 0.500052 27.0504 0.5 26.5ZM3.5 2.5H26.5L28.5 0.5H3.5C2.70435 0.5 1.94129 0.81607 1.37868 1.37868C0.81607 1.94129 0.5 2.70435 0.5 3.5V5.5C0.5 4.70435 0.81607 3.94129 1.37868 3.37868C1.94129 2.81607 2.70435 2.5 3.5 2.5Z" fill="#1FA463"/>
<path d="M6.50007 11C5.73903 11.0001 4.9904 10.8071 4.32421 10.4392C3.65802 10.0712 3.09602 9.54036 2.69078 8.89618C2.28554 8.25201 2.05029 7.51558 2.00703 6.75577C1.96378 5.99596 2.11393 5.23759 2.44344 4.55158C2.77296 3.86558 3.27108 3.27435 3.89121 2.83319C4.51134 2.39204 5.23323 2.11536 5.98936 2.02904C6.74549 1.94272 7.51116 2.04958 8.21476 2.33962C8.91837 2.62966 9.53692 3.09341 10.0126 3.6875L8.45007 4.9375C8.10844 4.51145 7.6367 4.20898 7.10696 4.07632C6.57721 3.94366 6.0186 3.98811 5.5165 4.20287C5.0144 4.41763 4.59643 4.79089 4.32647 5.26561C4.05652 5.74032 3.94942 6.29037 4.02156 6.83169C4.0937 7.373 4.34111 7.87581 4.72596 8.26326C5.11082 8.6507 5.61195 8.90148 6.15277 8.97725C6.69359 9.05303 7.24435 8.94963 7.72087 8.68287C8.19738 8.4161 8.57344 8.00065 8.79157 7.5H6.50007V5.5H10.0001C10.2653 5.5 10.5196 5.60536 10.7072 5.79289C10.8947 5.98043 11.0001 6.23479 11.0001 6.5C10.9986 7.69303 10.524 8.83678 9.68044 9.68037C8.83684 10.524 7.6931 10.9985 6.50007 11Z" fill="#F7F7FF"/>
<path d="M22.5 8.5C23.1198 8.50071 23.7242 8.69337 24.23 9.0515C24.7359 9.40963 25.1184 9.91565 25.325 10.5C25.4868 10.0472 25.5374 9.56222 25.4726 9.0858C25.4078 8.60939 25.2294 8.15554 24.9524 7.76249C24.6755 7.36944 24.3082 7.0487 23.8814 6.82731C23.4546 6.60592 22.9808 6.49036 22.5 6.49036C22.0192 6.49036 21.5454 6.60592 21.1186 6.82731C20.6918 7.0487 20.3245 7.36944 20.0476 7.76249C19.7706 8.15554 19.5922 8.60939 19.5274 9.0858C19.4626 9.56222 19.5132 10.0472 19.675 10.5C19.8816 9.91565 20.2641 9.40963 20.77 9.0515C21.2758 8.69337 21.8802 8.50071 22.5 8.5Z" fill="#91323C"/>
<path d="M15.6 10.355C15.5354 10.7333 15.502 11.1162 15.5 11.5C15.5178 12.07 15.6307 12.6331 15.834 13.166L16.445 12.555C16.0679 11.862 15.7838 11.1223 15.6 10.355Z" fill="#1FA463"/>
<path d="M29.3966 10.3675C28.5411 14.3405 22.5001 20.5 22.5001 20.5C21.1902 19.1341 19.9566 17.6969 18.8051 16.195L17.9651 17.035C18.2374 17.4272 18.5174 17.8139 18.8051 18.195C19.9566 19.6969 21.1902 21.1341 22.5001 22.5C22.5001 22.5 29.5001 15.365 29.5001 11.5C29.4967 11.1203 29.4621 10.7415 29.3966 10.3675Z" fill="#AEB2D4"/>
<path d="M16.445 12.555L15.834 13.166C16.0049 13.6427 16.209 14.1069 16.445 14.555C16.8957 15.4147 17.4035 16.2432 17.965 17.035L18.805 16.195C17.9157 15.0514 17.1261 13.8336 16.445 12.555Z" fill="#FFB844"/>
</g>
<defs>
<clipPath id="clip0_26_3165">
<rect width="32" height="32" fill="white"/>
</clipPath>
</defs>
</svg>

<svg width="32" height="32" fill="none" xmlns="http://www.w3.org/2000/svg"><g clip-path="url(#a)"><path d="M22.5 12.5a3 3 0 1 0 0-6 3 3 0 0 0 0 6Z" fill="#A83229"/><path d="M20.5 31.5h-17L12 23l8.5 8.5Z" fill="#4A9BF6"/><path d="M31.5 3.5v25a3 3 0 0 1-3 3h-2L15 20l3.805-3.805A51.428 51.428 0 0 0 22.5 20.5s7-7.135 7-11c0-1.12-.269-2.222-.785-3.215L31.5 3.5Z" fill="#D3D9F2"/><path d="m31.5 3.5-2.785 2.785a6.954 6.954 0 0 0-3-3L28.5.5a3 3 0 0 1 3 3Z" fill="#FFDF64"/><path d="M26.5 31.5h-6L12 23l3-3 11.5 11.5Z" fill="#F7F7FF"/><path d="M18.805 16.195 15 20l-3 3-8.5 8.5a3 3 0 0 1-3-3l15.945-15.945a25.327 25.327 0 0 0 2.36 3.64Z" fill="#FFDF64"/><path d="m28.5.5-2.785 2.785A6.995 6.995 0 0 0 15.5 9.5a7.075 7.075 0 0 0 .945 3.055L.5 28.5v-25a3 3 0 0 1 3-3h25Z" fill="#28BE77"/><path d="M28.715 6.285c.516.993.786 2.096.785 3.215 0 3.865-7 11-7 11a51.46 51.46 0 0 1-3.695-4.305 25.327 25.327 0 0 1-2.36-3.64A7.075 7.075 0 0 1 15.5 9.5a7 7 0 0 1 13.215-3.215ZM25.5 9.5a3 3 0 1 0-6 0 3 3 0 0 0 6 0Z" fill="#D73D3F"/><path d="m5.5 29.5-2 2h17l-2-2h-13Z" fill="#3B7CC4"/><path d="M28.5 29.5h-4l2 2h2a3 3 0 0 0 3-3v-2a3 3 0 0 1-3 3Z" fill="#AEB2D4"/><path d="M31.059 3.942c.288.468.441 1.008.441 1.558v-2l-.441.442Z" fill="#B8BCE0"/><path d="M28.5 2.5a2.996 2.996 0 0 1 2.558 1.442L31.5 3.5a3 3 0 0 0-3-3l-2 2h2Z" fill="#FFB844"/><path d="m18.5 29.5 2 2h6l-2-2h-6Z" fill="#CACFE8"/><path d="M3.5 29.5a2.996 2.996 0 0 1-2.558-1.442L.5 28.5a3 3 0 0 0 3 3l2-2h-2Z" fill="#FFB844"/><path d="M.5 26.5v2l.442-.442A2.972 2.972 0 0 1 .5 26.5Zm3-24h23l2-2h-25a3 3 0 0 0-3 3v2a3 3 0 0 1 3-3Z" fill="#1FA463"/><path d="M6.5 11a4.5 4.5 0 1 1 3.513-7.313L8.45 4.938A2.5 2.5 0 1 0 8.792 7.5H6.5v-2H10a1 1 0 0 1 1 1A4.506 4.506 0 0 1 6.5 11Z" fill="#F7F7FF"/><path d="M22.5 8.5a3 3 0 0 1 2.825 2 3 3 0 1 0-5.65 0 3 3 0 0 1 2.825-2Z" fill="#91323C"/><path d="M15.6 10.355a7.019 7.019 0 0 0-.1 1.145c.018.57.13 1.133.334 1.666l.611-.611a8.979 8.979 0 0 1-.845-2.2Z" fill="#1FA463"/><path d="M29.397 10.367C28.54 14.34 22.5 20.5 22.5 20.5a51.428 51.428 0 0 1-3.695-4.305l-.84.84c.272.392.552.779.84 1.16A51.428 51.428 0 0 0 22.5 22.5s7-7.135 7-11a6.924 6.924 0 0 0-.103-1.133Z" fill="#AEB2D4"/><path d="m16.445 12.555-.611.611c.17.477.375.94.611 1.389.45.86.959 1.688 1.52 2.48l.84-.84a25.327 25.327 0 0 1-2.36-3.64Z" fill="#FFB844"/></g><defs><clipPath id="a"><path fill="#fff" d="M0 0h32v32H0z"/></clipPath></defs></svg>
